src/icons/k8s-networkpolicy.svg

<?xml version="1.0" encoding="UTF-8"?>
<svg xmlns="http://www.w3.org/2000/svg" xmlns:xlink="http://www.w3.org/1999/xlink" width="32.978184" height="32" viewBox="0 0 32.978184 32" version="1.1">
<g id="surface1">
<path style=" stroke:none;fill-rule:nonzero;fill:rgb(19.607843%,42.352942%,89.803922%);fill-opacity:1;" d="M 16.378906 0.847656 C 16.105469 0.859375 15.832031 0.929688 15.585938 1.046875 L 4.722656 6.238281 C 4.15625 6.507812 3.742188 7.023438 3.601562 7.636719 L 0.921875 19.292969 C 0.796875 19.835938 0.898438 20.402344 1.203125 20.871094 C 1.238281 20.925781 1.277344 20.980469 1.320312 21.035156 L 8.839844 30.382812 C 9.234375 30.871094 9.832031 31.15625 10.460938 31.15625 L 22.515625 31.152344 C 23.148438 31.152344 23.746094 30.871094 24.140625 30.378906 L 31.65625 21.03125 C 32.050781 20.542969 32.199219 19.898438 32.058594 19.289062 L 29.375 7.632812 C 29.234375 7.019531 28.820312 6.507812 28.25 6.234375 L 17.386719 1.046875 C 17.074219 0.898438 16.726562 0.828125 16.378906 0.847656 Z M 16.378906 0.847656 "/>
<path style=" stroke:none;fill-rule:nonzero;fill:rgb(100%,100%,100%);fill-opacity:1;" d="M 16.375 0.00390625 C 16.082031 0.0195312 15.796875 0.0898438 15.535156 0.214844 L 4.070312 5.695312 C 3.46875 5.980469 3.03125 6.523438 2.882812 7.167969 L 0.0546875 19.472656 C -0.078125 20.046875 0.03125 20.648438 0.351562 21.140625 C 0.390625 21.203125 0.433594 21.257812 0.476562 21.3125 L 8.414062 31.183594 C 8.828125 31.699219 9.460938 32 10.128906 32 L 22.851562 31.996094 C 23.519531 31.996094 24.152344 31.695312 24.566406 31.179688 L 32.5 21.3125 C 32.914062 20.792969 33.070312 20.117188 32.921875 19.472656 L 30.089844 7.164062 C 29.941406 6.519531 29.503906 5.980469 28.90625 5.691406 L 17.4375 0.214844 C 17.109375 0.0585938 16.742188 -0.015625 16.375 0.00390625 Z M 16.378906 0.847656 C 16.726562 0.828125 17.074219 0.898438 17.386719 1.046875 L 28.25 6.234375 C 28.820312 6.507812 29.230469 7.023438 29.375 7.632812 L 32.058594 19.289062 C 32.199219 19.902344 32.050781 20.542969 31.65625 21.03125 L 24.140625 30.378906 C 23.746094 30.871094 23.148438 31.15625 22.515625 31.152344 L 10.460938 31.15625 C 9.828125 31.15625 9.230469 30.871094 8.839844 30.382812 L 1.320312 21.035156 C 1.277344 20.984375 1.238281 20.929688 1.203125 20.871094 C 0.898438 20.402344 0.796875 19.835938 0.921875 19.292969 L 3.601562 7.636719 C 3.742188 7.023438 4.15625 6.511719 4.722656 6.238281 L 15.585938 1.046875 C 15.832031 0.929688 16.105469 0.859375 16.378906 0.847656 Z M 16.378906 0.847656 "/>
<path style=" stroke:none;fill-rule:nonzero;fill:rgb(100%,100%,100%);fill-opacity:1;" d="M 15.535156 7.636719 C 11.304688 7.636719 7.871094 11.070312 7.871094 15.300781 C 7.871094 19.53125 11.304688 22.964844 15.535156 22.964844 C 16.484375 22.964844 17.390625 22.785156 18.230469 22.46875 L 18.230469 20.664062 C 18.230469 20.050781 18.730469 19.019531 19.34375 19.019531 L 19.34375 17.34375 C 19.34375 16.503906 20.597656 15.082031 22.136719 15.082031 C 22.515625 15.082031 22.871094 15.15625 23.199219 15.292969 C 23.195312 11.066406 19.761719 7.636719 15.535156 7.636719 Z M 17.070312 10.320312 L 19.75 13.003906 L 17.835938 13.003906 L 17.835938 16.066406 L 16.304688 16.066406 L 16.304688 13.003906 L 14.386719 13.003906 Z M 13.238281 14.535156 L 14.769531 14.535156 L 14.769531 17.601562 L 16.6875 17.601562 L 14.003906 20.28125 L 11.320312 17.601562 L 13.238281 17.601562 Z M 22.332031 16.4375 C 21.238281 16.4375 20.351562 17.324219 20.351562 18.417969 L 20.351562 19.605469 C 19.914062 19.605469 19.558594 19.960938 19.558594 20.398438 L 19.558594 23.570312 C 19.558594 24.003906 19.914062 24.363281 20.351562 24.363281 L 24.3125 24.363281 C 24.75 24.363281 25.105469 24.003906 25.105469 23.570312 L 25.105469 20.398438 C 25.105469 19.960938 24.75 19.605469 24.3125 19.605469 L 24.3125 18.417969 C 24.3125 17.324219 23.425781 16.4375 22.332031 16.4375 Z M 22.332031 17.226562 C 22.988281 17.226562 23.519531 17.761719 23.519531 18.417969 L 23.519531 19.605469 L 21.144531 19.605469 L 21.144531 18.417969 C 21.144531 17.761719 21.671875 17.226562 22.332031 17.226562 Z M 22.332031 17.226562 "/>
</g>
</svg>

<svg role="img" viewBox="0 0 32.978 32" xmlns="http://www.w3.org/2000/svg"><path d="M16.379.848a2.066 2.066 0 0 0-.793.199L4.723 6.238a2.06 2.06 0 0 0-1.121 1.399L.922 19.293a2.046 2.046 0 0 0 .398 1.742l7.52 9.348c.394.488.992.773 1.62.773l12.056-.004c.632 0 1.23-.28 1.625-.773l7.515-9.348a2.045 2.045 0 0 0 .403-1.742L29.375 7.633a2.063 2.063 0 0 0-1.125-1.399L17.387 1.047a2.082 2.082 0 0 0-1.008-.2m0 0" style="stroke:none;fill-rule:nonzero;fill:rgb(19.607843%,42.352942%,89.803922%);fill-opacity:1"/><path d="M16.375.004a2.22 2.22 0 0 0-.84.21L4.07 5.696a2.171 2.171 0 0 0-1.187 1.473L.055 19.473a2.164 2.164 0 0 0 .297 1.668c.039.062.082.117.125.172l7.937 9.87A2.2 2.2 0 0 0 10.13 32l12.723-.004c.668 0 1.3-.3 1.714-.816l7.934-9.867a2.17 2.17 0 0 0 .422-1.84L30.09 7.164a2.185 2.185 0 0 0-1.184-1.473L17.438.215a2.206 2.206 0 0 0-1.063-.211m.004.844c.348-.02.695.05 1.008.199L28.25 6.234c.57.274.98.79 1.125 1.399l2.684 11.656a2.042 2.042 0 0 1-.403 1.742l-7.515 9.348a2.065 2.065 0 0 1-1.625.773l-12.055.004c-.633 0-1.23-.285-1.621-.773l-7.52-9.348a2.046 2.046 0 0 1-.398-1.742l2.68-11.656a2.068 2.068 0 0 1 1.12-1.399l10.864-5.191c.246-.117.52-.188.793-.2m-.844 6.79A7.667 7.667 0 0 0 7.871 15.3a7.667 7.667 0 0 0 7.664 7.664c.95 0 1.856-.18 2.695-.496v-1.805c0-.613.5-1.644 1.114-1.644v-1.676c0-.84 1.254-2.262 2.793-2.262.379 0 .734.074 1.062.211a7.668 7.668 0 0 0-7.664-7.656m1.535 2.683 2.68 2.684h-1.914v3.062h-1.531v-3.062h-1.918Zm-3.832 4.215h1.532v3.067h1.918l-2.684 2.68-2.684-2.68h1.918Zm9.094 1.902a1.98 1.98 0 0 0-1.98 1.981v1.187a.794.794 0 0 0-.793.793v3.172c0 .434.355.793.793.793h3.96c.438 0 .793-.36.793-.793v-3.172a.794.794 0 0 0-.793-.793v-1.187a1.98 1.98 0 0 0-1.98-1.98m0 .79a1.19 1.19 0 0 1 1.188 1.191v1.187h-2.375v-1.187c0-.656.527-1.191 1.187-1.191m0 0" style="stroke:none;fill-rule:nonzero;fill:rgb(100%,100%,100%);fill-opacity:1"/></svg>
